icons/communication/message-question-alt-24.svg

<svg width="25" height="24" viewBox="0 0 25 24" fill="none" xmlns="http://www.w3.org/2000/svg">
<path d="M19.1953 14.5289C18.8388 14.4689 18.4721 14.5346 18.1603 14.7143C17.8484 14.894 17.6115 15.1761 17.4915 15.5106C17.351 15.9022 16.9132 16.108 16.5138 15.9703C16.1144 15.8325 15.9045 15.4034 16.045 15.0117C16.2852 14.3423 16.7593 13.7778 17.3833 13.4182C18.0074 13.0586 18.7411 12.9272 19.4545 13.0472C20.1679 13.1671 20.815 13.5308 21.2811 14.0737C21.7471 14.6164 22.0023 15.3033 22.0013 16.0128C22.0011 17.1627 21.1316 17.922 20.5108 18.3278C20.3121 18.4576 20.1153 18.5671 19.9375 18.6566C19.8486 18.7014 19.8041 18.7238 19.7746 18.7537C19.7476 18.7812 19.7293 18.8106 19.7167 18.8467C19.703 18.8861 19.703 18.9323 19.703 19.0248V19.2483C19.703 19.6635 19.3597 20 18.9363 20C18.5129 20 18.1696 19.6635 18.1696 19.2483L18.1696 18.2657C18.1696 17.9427 18.3801 17.6559 18.6923 17.5531C18.6923 17.5531 18.8906 17.4787 18.9841 17.4379C19.1731 17.3555 19.4194 17.2343 19.6602 17.0769C20.1885 16.7316 20.468 16.3644 20.468 16.0123C20.4685 15.6577 20.341 15.3132 20.1081 15.0419C19.8751 14.7706 19.5518 14.5888 19.1953 14.5289Z" fill="black"/>
<path d="M19.0013 21C19.5536 21 20.0013 21.4477 20.0013 22C20.0013 22.5523 19.5536 23 19.0013 23C18.4491 23 18.0013 22.5523 18.0013 22C18.0013 21.4477 18.4491 21 19.0013 21Z" fill="black"/>
<path d="M12.5014 3.5C8.08307 3.5 4.50135 7.08172 4.50135 11.5C4.50135 12.7385 4.78225 13.9092 5.28311 14.9539C5.39959 15.1969 5.37361 15.4713 5.23842 15.6828L3.80295 19.0948L8.35032 18.5132C8.48621 18.4958 8.61826 18.516 8.73603 18.5656C8.7604 18.5752 8.78451 18.5862 8.80826 18.5986C9.11994 18.7611 9.44369 18.9037 9.77786 19.0247C10.1758 19.1687 10.4191 19.5893 10.3004 19.9955C10.1869 20.3839 9.78388 20.6145 9.40143 20.4825C9.0282 20.3537 8.66545 20.2023 8.31484 20.03L3.1324 20.6928C2.36801 20.7906 1.78495 20.0234 2.08378 19.3131L3.78191 15.2767C3.27955 14.1184 3.00135 12.8408 3.00135 11.5C3.00135 6.25329 7.25465 2 12.5014 2C17.4957 2 21.5898 5.85392 21.9722 10.7501C22.0044 11.163 21.6656 11.5 21.2514 11.5C20.8371 11.5 20.505 11.1631 20.4667 10.7507C20.089 6.68377 16.667 3.5 12.5014 3.5Z" fill="black"/>
</svg>

<svg xmlns="http://www.w3.org/2000/svg" width="25" height="24"><path d="M19.195 14.529a1.557 1.557 0 00-1.035.185 1.51 1.51 0 00-.669.797.77.77 0 01-.977.46.748.748 0 01-.469-.96 3.02 3.02 0 011.338-1.593 3.117 3.117 0 012.072-.37c.713.12 1.36.483 1.826 1.026a2.97 2.97 0 01.72 1.939c0 1.15-.87 1.909-1.49 2.315-.199.13-.396.24-.573.329a.595.595 0 00-.163.097.242.242 0 00-.058.093c-.014.04-.014.085-.014.178v.223a.76.76 0 01-.767.752.76.76 0 01-.766-.752v-.982c0-.323.21-.61.522-.713 0 0 .199-.074.292-.115.19-.082.435-.204.676-.361.529-.345.808-.713.808-1.065a1.49 1.49 0 00-.36-.97 1.539 1.539 0 00-.913-.513zM19.001 21a1 1 0 110 2 1 1 0 010-2z"/><path d="M12.501 3.5a8 8 0 00-7.218 11.454.75.75 0 01-.045.729l-1.435 3.412 4.547-.582a.746.746 0 01.458.086c.312.162.636.305.97.426.398.144.641.564.522.97-.113.389-.516.62-.899.488a9.462 9.462 0 01-1.086-.453l-5.183.663a1 1 0 01-1.048-1.38l1.698-4.036A9.5 9.5 0 0112.502 2c4.994 0 9.088 3.854 9.47 8.75.032.413-.306.75-.72.75-.415 0-.747-.337-.785-.75A8 8 0 0012.5 3.5z"/></svg>
